assets/images/Header/Links/schedule.svg

<svg width="32" height="32" viewBox="0 0 32 32" fill="none" xmlns="http://www.w3.org/2000/svg">
<path d="M11.1571 17.3143C11.5654 17.3143 11.9569 17.1521 12.2456 16.8634C12.5343 16.5748 12.6964 16.1832 12.6964 15.775C12.6964 15.3668 12.5343 14.9752 12.2456 14.6866C11.9569 14.3979 11.5654 14.2357 11.1571 14.2357C10.7489 14.2357 10.3574 14.3979 10.0687 14.6866C9.78003 14.9752 9.61786 15.3668 9.61786 15.775C9.61786 16.1832 9.78003 16.5748 10.0687 16.8634C10.3574 17.1521 10.7489 17.3143 11.1571 17.3143ZM12.6964 20.3929C12.6964 20.8011 12.5343 21.1926 12.2456 21.4813C11.9569 21.77 11.5654 21.9321 11.1571 21.9321C10.7489 21.9321 10.3574 21.77 10.0687 21.4813C9.78003 21.1926 9.61786 20.8011 9.61786 20.3929C9.61786 19.9846 9.78003 19.5931 10.0687 19.3044C10.3574 19.0157 10.7489 18.8536 11.1571 18.8536C11.5654 18.8536 11.9569 19.0157 12.2456 19.3044C12.5343 19.5931 12.6964 19.9846 12.6964 20.3929V20.3929ZM15.775 17.3143C16.1832 17.3143 16.5748 17.1521 16.8634 16.8634C17.1521 16.5748 17.3143 16.1832 17.3143 15.775C17.3143 15.3668 17.1521 14.9752 16.8634 14.6866C16.5748 14.3979 16.1832 14.2357 15.775 14.2357C15.3668 14.2357 14.9752 14.3979 14.6866 14.6866C14.3979 14.9752 14.2357 15.3668 14.2357 15.775C14.2357 16.1832 14.3979 16.5748 14.6866 16.8634C14.9752 17.1521 15.3668 17.3143 15.775 17.3143V17.3143ZM17.3143 20.3929C17.3143 20.8011 17.1521 21.1926 16.8634 21.4813C16.5748 21.77 16.1832 21.9321 15.775 21.9321C15.3668 21.9321 14.9752 21.77 14.6866 21.4813C14.3979 21.1926 14.2357 20.8011 14.2357 20.3929C14.2357 19.9846 14.3979 19.5931 14.6866 19.3044C14.9752 19.0157 15.3668 18.8536 15.775 18.8536C16.1832 18.8536 16.5748 19.0157 16.8634 19.3044C17.1521 19.5931 17.3143 19.9846 17.3143 20.3929V20.3929ZM20.3929 17.3143C20.8011 17.3143 21.1926 17.1521 21.4813 16.8634C21.77 16.5748 21.9321 16.1832 21.9321 15.775C21.9321 15.3668 21.77 14.9752 21.4813 14.6866C21.1926 14.3979 20.8011 14.2357 20.3929 14.2357C19.9846 14.2357 19.5931 14.3979 19.3044 14.6866C19.0157 14.9752 18.8536 15.3668 18.8536 15.775C18.8536 16.1832 19.0157 16.5748 19.3044 16.8634C19.5931 17.1521 19.9846 17.3143 20.3929 17.3143V17.3143ZM26.55 8.84821C26.55 7.8276 26.1446 6.8488 25.4229 6.12712C24.7012 5.40544 23.7224 5 22.7018 5H8.84821C7.8276 5 6.8488 5.40544 6.12712 6.12712C5.40544 6.8488 5 7.8276 5 8.84821V22.7018C5 23.7224 5.40544 24.7012 6.12712 25.4229C6.8488 26.1446 7.8276 26.55 8.84821 26.55H22.7018C23.7224 26.55 24.7012 26.1446 25.4229 25.4229C26.1446 24.7012 26.55 23.7224 26.55 22.7018V8.84821ZM6.53929 11.1571H25.0107V22.7018C25.0107 23.3142 24.7675 23.9014 24.3344 24.3344C23.9014 24.7675 23.3142 25.0107 22.7018 25.0107H8.84821C8.23585 25.0107 7.64856 24.7675 7.21555 24.3344C6.78255 23.9014 6.53929 23.3142 6.53929 22.7018V11.1571ZM8.84821 6.53929H22.7018C23.3142 6.53929 23.9014 6.78255 24.3344 7.21555C24.7675 7.64856 25.0107 8.23585 25.0107 8.84821V9.61786H6.53929V8.84821C6.53929 8.23585 6.78255 7.64856 7.21555 7.21555C7.64856 6.78255 8.23585 6.53929 8.84821 6.53929V6.53929Z" fill="#565656"/>
</svg>

<svg xmlns="http://www.w3.org/2000/svg" width="32" height="32" fill="none" viewBox="0 0 32 32"><path fill="#565656" d="M11.157 17.314a1.54 1.54 0 1 0 0-3.078 1.54 1.54 0 0 0 0 3.078zm1.54 3.079a1.54 1.54 0 1 1-3.079 0 1.54 1.54 0 0 1 3.078 0zm3.078-3.079a1.54 1.54 0 1 0 0-3.078 1.54 1.54 0 0 0 0 3.078zm1.54 3.079a1.54 1.54 0 1 1-3.08 0 1.54 1.54 0 0 1 3.08 0zm3.078-3.079a1.54 1.54 0 1 0 0-3.078 1.54 1.54 0 0 0 0 3.078zm6.157-8.466A3.848 3.848 0 0 0 22.702 5H8.848A3.848 3.848 0 0 0 5 8.848v13.854a3.848 3.848 0 0 0 3.848 3.848h13.854a3.848 3.848 0 0 0 3.848-3.848V8.848zm-20.01 2.31h18.47v11.544a2.308 2.308 0 0 1-2.308 2.309H8.848A2.309 2.309 0 0 1 6.54 22.7V11.158zm2.308-4.619h13.854a2.309 2.309 0 0 1 2.309 2.31v.769H6.539v-.77A2.309 2.309 0 0 1 8.85 6.54z"/></svg>
